cigar.svg

<svg fill="currentColor" viewBox="0 0 24 24"><path d="M16 10.2h-1.5a2 2 0 0 1-1.85-2 1.78 1.78 0 0 1 1.85-1.75V5a3.35 3.35 0 1 0 0 6.7H16a1.93 1.93 0 0 1 2 2V15h1.5v-1.64A3.31 3.31 0 0 0 16 10.2m2.82-2.47A3.34 3.34 0 0 0 16.5 2v1.5a1.85 1.85 0 1 1 0 3.7v1.5a4 4 0 0 1 4 4.07V15H22v-2.24a5.55 5.55 0 0 0-3.15-5.03M18 16v6h1.5v-6m1 0v6H22v-6m-10 0v1.27a2 2 0 0 1 0 3.46V22h5v-6m-14.12.88A3 3 0 0 0 5 22h5v-1.27a2 2 0 0 1 0-3.46V16H5a3 3 0 0 0-2.12.88M12 19a1 1 0 1 1-1-1 1 1 0 0 1 1 1"/></svg>

<svg  viewBox="0 0 24 24" fill="currentColor"><path  d="M16 10.2H14.5A2 2 0 0 1 12.65 8.2A1.78 1.78 0 0 1 14.5 6.45V5A3.35 3.35 0 1 0 14.5 11.7H16A1.93 1.93 0 0 1 18 13.7V15H19.5V13.36A3.31 3.31 0 0 0 16 10.2M18.82 7.73A3.34 3.34 0 0 0 16.5 2V3.5A1.85 1.85 0 1 1 16.5 7.2V8.7A4 4 0 0 1 20.5 12.77V15H22V12.76A5.55 5.55 0 0 0 18.85 7.73M18 16V22H19.5V16M20.5 16V22H22V16M12 16V17.27A2 2 0 0 1 12 20.73V22H17V16M2.88 16.88A3 3 0 0 0 5 22H10V20.73A2 2 0 0 1 10 17.27V16H5A3 3 0 0 0 2.88 16.88M12 19A1 1 0 1 1 11 18A1 1 0 0 1 12 19Z"/></svg>
